img/image/content/socials-2.svg

<svg xmlns="http://www.w3.org/2000/svg" fill="none" viewBox="0.56 0.3 30 30">
<g clip-path="url(#clip0_204_2433)">
<rect x="0.563477" y="0.301758" width="30" height="30" rx="4" fill="url(#paint0_linear_204_2433)"/>
<path d="M12.439 15.3018C12.439 13.5759 13.8377 12.1765 15.5635 12.1765C17.2893 12.1765 18.6887 13.5759 18.6887 15.3018C18.6887 17.0276 17.2893 18.427 15.5635 18.427C13.8377 18.427 12.439 17.0276 12.439 15.3018ZM10.7495 15.3018C10.7495 17.9605 12.9047 20.1157 15.5635 20.1157C18.2222 20.1157 20.3774 17.9605 20.3774 15.3018C20.3774 12.643 18.2222 10.4878 15.5635 10.4878C12.9047 10.4878 10.7495 12.643 10.7495 15.3018ZM19.443 10.2969C19.4429 10.5194 19.5088 10.737 19.6323 10.922C19.7559 11.1071 19.9315 11.2513 20.1371 11.3366C20.3426 11.4218 20.5688 11.4442 20.787 11.4009C21.0053 11.3575 21.2058 11.2505 21.3632 11.0932C21.5206 10.9359 21.6278 10.7355 21.6713 10.5173C21.7148 10.2991 21.6926 10.0729 21.6075 9.86728C21.5225 9.66168 21.3783 9.48592 21.1934 9.36223C21.0084 9.23854 20.791 9.17247 20.5685 9.17238H20.568C20.2698 9.17252 19.9838 9.29103 19.7728 9.50188C19.5619 9.71273 19.4433 9.99869 19.443 10.2969ZM11.776 22.9328C10.862 22.8912 10.3652 22.7389 10.035 22.6103C9.5973 22.4399 9.285 22.2369 8.95665 21.909C8.6283 21.5811 8.42505 21.2691 8.2554 20.8314C8.1267 20.5014 7.97445 20.0045 7.9329 19.0905C7.88745 18.1023 7.87838 17.8054 7.87838 15.3018C7.87838 12.7983 7.8882 12.5022 7.9329 11.5132C7.97453 10.5992 8.1279 10.1032 8.2554 9.77223C8.4258 9.33453 8.62875 9.02223 8.95665 8.69388C9.28455 8.36553 9.59655 8.16228 10.035 7.99263C10.365 7.86393 10.862 7.71168 11.776 7.67013C12.7642 7.62468 13.061 7.61561 15.5635 7.61561C18.0659 7.61561 18.3631 7.62543 19.3521 7.67013C20.2661 7.71176 20.7621 7.86513 21.0931 7.99263C21.5308 8.16228 21.8431 8.36598 22.1714 8.69388C22.4998 9.02178 22.7023 9.33453 22.8727 9.77223C23.0014 10.1022 23.1536 10.5992 23.1952 11.5132C23.2406 12.5022 23.2497 12.7983 23.2497 15.3018C23.2497 17.8054 23.2406 18.1014 23.1952 19.0905C23.1536 20.0045 23.0006 20.5013 22.8727 20.8314C22.7023 21.2691 22.4993 21.5814 22.1714 21.909C21.8435 22.2366 21.5308 22.4399 21.0931 22.6103C20.7631 22.739 20.2661 22.8912 19.3521 22.9328C18.3639 22.9782 18.0671 22.9873 15.5635 22.9873C13.0599 22.9873 12.7639 22.9782 11.776 22.9328ZM11.6984 5.98353C10.7003 6.02898 10.0184 6.18723 9.42278 6.41898C8.80598 6.65831 8.28383 6.97938 7.76205 7.50033C7.24028 8.02128 6.92003 8.54426 6.6807 9.16106C6.44895 9.75701 6.2907 10.4386 6.24525 11.4366C6.19905 12.4362 6.18848 12.7558 6.18848 15.3018C6.18848 17.8477 6.19905 18.1673 6.24525 19.1669C6.2907 20.165 6.44895 20.8465 6.6807 21.4425C6.92003 22.0589 7.24035 22.5825 7.76205 23.1032C8.28375 23.6239 8.80598 23.9445 9.42278 24.1845C10.0195 24.4163 10.7003 24.5745 11.6984 24.62C12.6985 24.6654 13.0175 24.6768 15.5635 24.6768C18.1094 24.6768 18.429 24.6662 19.4286 24.62C20.4267 24.5745 21.1082 24.4163 21.7042 24.1845C22.3206 23.9445 22.8431 23.6241 23.3649 23.1032C23.8867 22.5822 24.2063 22.0589 24.4463 21.4425C24.678 20.8465 24.837 20.1649 24.8817 19.1669C24.9272 18.1665 24.9377 17.8477 24.9377 15.3018C24.9377 12.7558 24.9272 12.4362 24.8817 11.4366C24.8363 10.4385 24.678 9.75663 24.4463 9.16106C24.2063 8.54463 23.8859 8.02211 23.3649 7.50033C22.844 6.97856 22.3206 6.65831 21.7049 6.41898C21.1082 6.18723 20.4266 6.02823 19.4294 5.98353C18.4298 5.93808 18.1102 5.92676 15.5642 5.92676C13.0183 5.92676 12.6985 5.93733 11.6984 5.98353Z" fill="white"/>
</g>
<defs>
<linearGradient id="paint0_linear_204_2433" x1="2.57773" y1="28.3473" x2="30.3748" y2="4.28452" gradientUnits="userSpaceOnUse">
<stop stop-color="#FFDD55"/>
<stop offset="0.5" stop-color="#FF543E"/>
<stop offset="1" stop-color="#C837AB"/>
</linearGradient>
<clipPath id="clip0_204_2433">
<rect width="30" height="30" fill="white" transform="translate(0.563477 0.301758)"/>
</clipPath>
</defs>
</svg>

<svg xmlns="http://www.w3.org/2000/svg" fill="none" viewBox="0.56 0.3 30 30"><g clip-path="url(#a)"><rect x=".563" y=".302" width="30" height="30" rx="4" fill="url(#b)"/><path d="M12.439 15.302a3.125 3.125 0 1 1 6.25-.001 3.125 3.125 0 0 1-6.25 0Zm-1.69 0a4.814 4.814 0 1 0 9.628 0 4.814 4.814 0 0 0-9.627 0Zm8.694-5.005a1.125 1.125 0 1 0 1.125-1.125 1.126 1.126 0 0 0-1.125 1.125Zm-7.667 12.636c-.914-.042-1.41-.194-1.741-.323a2.914 2.914 0 0 1-1.078-.701 2.892 2.892 0 0 1-.702-1.078c-.128-.33-.28-.826-.322-1.74-.046-.989-.055-1.286-.055-3.79 0-2.503.01-2.799.055-3.788.042-.914.195-1.41.322-1.74.17-.438.374-.75.702-1.08a2.89 2.89 0 0 1 1.078-.7c.33-.13.827-.281 1.741-.323.988-.045 1.285-.054 3.787-.054 2.503 0 2.8.01 3.79.054.913.042 1.41.195 1.74.323.438.17.75.373 1.078.7.329.329.531.642.702 1.08.128.33.28.826.322 1.74.046.99.055 1.285.055 3.789 0 2.503-.01 2.8-.055 3.788-.041.915-.194 1.411-.322 1.741-.17.438-.374.75-.702 1.078-.328.328-.64.53-1.078.701-.33.129-.827.281-1.74.323-.99.045-1.286.054-3.79.054-2.503 0-2.8-.009-3.787-.054Zm-.078-16.95c-.998.046-1.68.204-2.275.436-.617.24-1.14.56-1.66 1.081A4.58 4.58 0 0 0 6.68 9.161c-.232.596-.39 1.278-.436 2.276-.046 1-.057 1.319-.057 3.865 0 2.546.011 2.865.057 3.865.046.998.204 1.68.436 2.275.239.617.56 1.14 1.081 1.661a4.61 4.61 0 0 0 1.66 1.081c.598.232 1.278.39 2.276.436 1 .045 1.32.057 3.865.057 2.546 0 2.866-.01 3.866-.057.998-.046 1.68-.204 2.275-.436a4.611 4.611 0 0 0 1.66-1.08 4.593 4.593 0 0 0 1.082-1.662c.232-.596.391-1.277.436-2.275.045-1 .056-1.32.056-3.865 0-2.546-.01-2.866-.056-3.865-.046-.998-.204-1.68-.436-2.276a4.61 4.61 0 0 0-1.081-1.66 4.587 4.587 0 0 0-1.66-1.082c-.597-.232-1.278-.39-2.276-.435-1-.046-1.319-.057-3.865-.057-2.546 0-2.866.01-3.866.057Z" fill="#fff"/></g><defs><linearGradient id="b" x1="2.578" y1="28.347" x2="30.375" y2="4.285" gradientUnits="userSpaceOnUse"><stop stop-color="#FD5"/><stop offset=".5" stop-color="#FF543E"/><stop offset="1" stop-color="#C837AB"/></linearGradient><clipPath id="a"><path fill="#fff" transform="translate(.563 .302)" d="M0 0h30v30H0z"/></clipPath></defs></svg>
